src/assets/icons/split-type-window.svg

<svg xmlns="http://www.w3.org/2000/svg" width="512" height="512" viewBox="0 0 468.062 468.062">
  <path fill="#FFF" d="M431.379.222h-394.7C16.456.222 0 16.671 0 36.895v394.268c0 20.221 16.456 36.677 36.679 36.677h394.7c20.228 0 36.683-16.456 36.683-36.677V36.895c0-20.23-16.456-36.673-36.683-36.673zm-24.86 41.744c8.689 0 15.723 7.04 15.723 15.72 0 8.683-7.033 15.717-15.723 15.717-8.688 0-15.723-7.04-15.723-15.717 0-8.68 7.034-15.72 15.723-15.72zm-56.33 0c8.688 0 15.723 7.04 15.723 15.72 0 8.683-7.034 15.717-15.723 15.717-8.684 0-15.711-7.04-15.711-15.717.001-8.68 7.028-15.72 15.711-15.72zm-308.276 70.46h184.055v313.495H41.913V112.426zm384.235 313.495H242.104V112.426h184.044v313.495z"/>
</svg>

<?xml version="1.0" encoding="iso-8859-1"?>
<!-- Generator: Adobe Illustrator 16.0.0, SVG Export Plug-In . SVG Version: 6.00 Build 0)  -->
<!DOCTYPE svg PUBLIC "-//W3C//DTD SVG 1.1//EN" "http://www.w3.org/Graphics/SVG/1.1/DTD/svg11.dtd">
<svg xmlns="http://www.w3.org/2000/svg" xmlns:xlink="http://www.w3.org/1999/xlink" version="1.1" id="Capa_1" x="0px" y="0px" width="512px" height="512px" viewBox="0 0 468.062 468.062" style="enable-background:new 0 0 468.062 468.062;" xml:space="preserve">
<g>
	<path d="M431.379,0.222h-394.7C16.456,0.222,0,16.671,0,36.895v394.268c0,20.221,16.456,36.677,36.679,36.677h394.7   c20.228,0,36.683-16.456,36.683-36.677V36.895C468.062,16.665,451.606,0.222,431.379,0.222z M406.519,41.966   c8.689,0,15.723,7.04,15.723,15.72c0,8.683-7.033,15.717-15.723,15.717c-8.688,0-15.723-7.04-15.723-15.717   C390.796,49.006,397.83,41.966,406.519,41.966z M350.189,41.966c8.688,0,15.723,7.04,15.723,15.72   c0,8.683-7.034,15.717-15.723,15.717c-8.684,0-15.711-7.04-15.711-15.717C334.479,49.006,341.506,41.966,350.189,41.966z    M41.913,112.426h184.055v313.495H41.913V112.426z M426.148,425.921H242.104V112.426h184.044V425.921z" fill="#FFFFFF"/>
</g>
<g>
</g>
<g>
</g>
<g>
</g>
<g>
</g>
<g>
</g>
<g>
</g>
<g>
</g>
<g>
</g>
<g>
</g>
<g>
</g>
<g>
</g>
<g>
</g>
<g>
</g>
<g>
</g>
<g>
</g>
</svg>
